!!!OTL: Lady Bird
!!!MPN: Baker, Chet
!!!OAT: Baker, Chet
!!!OAL: Chet Baker in Milan
!!!ODL: 1959-09-25/1959-10-06
!!!COM: Dameron, Tadd
!!!ODT: 1939
**kern
*ITromp
*ITrd1c2
*clefG2
*C:
*k[]
*M4/4
=11
2r
8g\L
8a\
8b\
8cc\J
=2
8r
8cc\
8r
8b\
4cc\
4b\
=3
[1cc
=4
8cc\]
8r
8b-\L
8cc\J
4b-\
4a-\
=5
2g/
4e/
4r
=6
1r
=7
4r
8f/L
8f-/J
8e-/L
8d/
8d-/
8e-/J
=8
8f/L
8a-/
8f/
8f#/J
8g\L
8a-\
8b-\
8cc\J
=9
4dd-\
4cc\
2ee-\
=10
2r
4r
8r
8cc\
=11
4dd\
4cc\
[2ee\
=12
4.ee\]
8cc\
4dd\
4cc\
=13
4g'/
2.g/
=14
4r
8r
8g/
8b\L
8cc\
8b\
8a\J
=15
8g/L
8e/J
4e-/
4r
8r
8e/
=16
8g/L
8e/
8f/
8g/J
8b-/L
8a-/
8g/
8f/J
=17||
8e\L
8g\
8b\
8dd\J
8cc\L
16dd\
J16cc\
8b\L
8a\J
=18
L8g/
8B/
8c/
8Jf/
8eL/
8f/
8g/
8b-J/
=19
8a-\L
8g\
8a-\
8b-\J
8cc/L
8a-/
8g/
8f/J
=20
8b-/L
8a-/
8c/
8e-/J
8g/L
8e/
8f/
8g/J
=21
4e/
8r
8G/
12G/L
12B/
12d/J
8B/L
8c/J
=22
8d/L
8e/
8f/
8f#/J
8g/L
8e/
8d/
8c/J
=23
2e-/
[2f/
=24
4f/]
4d-/
4c/
4B-/
=25
8c/L
8d-/J
[4e-/
2e-/]
=26
2r
4r
[4b\
=27
2.b\_
8b\]L
8a\J
=28
4g#/
4b\
4a'\
[4ee\
=29
L8ee\]
8dd\
8cc#\
8Jee\
8dLd\
8cc\
8b\
8a\J
=30
8g/L
8f#/
8f/
8e/J
8d/L
8c/
8B/
8c/J
=31
8d/L
8B/
8c/
8c#/J
8d/L
8g/
8g-/
8e/J
=32
8f/L
8g/
8a-/
8b-/J
8cc/L
8a-/
8g/
8f/J
=33||
8e\L
8g\
8b\
8dd\J
8cc\L
16dd\
16cc\J
8b\L
8cc\J
=34
8dd\L
8cc\
8b\
8cc\J
8dd\L
8cc\
8g\
8a-\J
=35
8b-/L
8a-/
8c/
8e-/J
8g/L
8f/J
4r
=36
1r
=37
8gg\L
16gg-\
16ff\J
8ee\L
[8ee\J
8ee\]L
16dd\
16dd-\J
8cc\L
8cc\J
=38
2r
4r
8r
[8aa-\
=39
4aa-\]
8gg\L
8ff\J
8ee-\L
8dd\
8dd-\
8cc\J
=40
8b-/L
8a-/
8g/
8f/J
8e-/L
8d-/
8c/
8e-/J
=41
8g/L
8b-/
8a/
8g/J
8a-\L
8b-\
8cc\
8ee-\J
=42
8gg\L
8ff\J
4r
4r
[4ee\
=43
4ee\]
8dd\L
8cc\J
8b\L
8a\
8g#\
8a\J
=44
8ee\L
8dd\J
4r
2r
=45
8r
8ee\
8dd\L
8cc#\J
8ee\L
8cc#\
8dd\
8cc\J
=46
8b/L
8a/
8g/
8f/J
8e\L
8g\
8b\
8dd\J
=47
8cc\L
16dd\
16cc\J
8b\L
8dd\J
8cc\L
8g\
8b-\
8g\J
=48
8a-/L
8c/
8e-/
8g/J
8f/L
16g/
16f/J
8e/L
8f/J
=49||
4.g/
[8cc\
8cc\]L
8g\J
[4cc\
=50
8cc\]
4g/
8e/
4g/
4e/
=51
4.f/
[8b-\
8b-/]L
8f/J
[4b-\
=52
8b-\]
4a-\
8e-/
4c/
4B-/
=53
2B/
8d/L
8B/J
8c/L
8d/J
=54
8e/L
8g/
8a/
8b/J
8cc\L
8dd\
8ee\
8ee-\J
=55
8dd\
8r
4r
4r
8ee-\L
8dd\J
=56
4dd-\
8dd-\L
8cc\J
4b-\
8dd-\L
8b-\J
=57
8cc\L
8a-\J
4e-/
2r
=58
1r
=59
4r
8b\L
8dd\J
4cc\
4r
=60
8r
8a\
8b\L
8g#\J
8a\L
8b\
8cc\
8ee\J
=61
4dd\
4r
2r
=62
8r
8ee\
8ff\L
8ff#\J
8gg\L
8ee\
8ff\
8ee-\J
=63
8ee\L
8dd\
8dd-\
8ee\J
8dd\L
8cc\
8b\
8dd\J
=64
8cc\L
16dd\
16cc\J
8b\L
8a\J
4g/
8r
8f/
=65||
2e/
2r
==
*-
!!!OCL: Hubert Leveille Gauvin
!!!ENC: Hubert Leveille Gauvin
!!!END: 2018-04-13